X: 05027
T: 5 A.M. JIG
C: Bob McQuillen 28 Sept'80
B: Bob's Note Book 5 #27
%R: jig
Z: 2021 John Chambers <jc:trillian.mit.edu>
M: 6/8
L: 1/8
K: D
fe \
| dBA AFA | BAA AFE | DFA d2e | f3- f ag || fee efg |\
[1 fee ede | fed dcB | A3- A :|2 fed dcB | Agf edc | d3- d |]
|: FG \
| AFF GAB | AFF GFE | DEF FGA | B3 B GA |\
| BGG GAB | AFF FGA |1 cBA GFE | D3- D :|2 cBA ABc | d3- d |]
%%begintext align
%% Yep, that's when it came - Ya know,
%% _sometimes_ I'd rather be sleeping!
%%endtext

%%sep 1 1 500

%%sep 1 1 500

